/* XPM */
static char *orderoftwilight[] = {
/* columns rows colors chars-per-pixel */
"32 32 7 1 ",
"  c None",
". c #31113B",
"X c #33437D",
"o c #B448D7",
"O c #FB4E99",
"+ c #CD85E4",
"@ c white",
/* pixels */
"                                ",
"                                ",
"                                ",
"                                ",
"                            ++  ",
"                            ++  ",
"                    XXXXXX++    ",
"                    XXXXXX++    ",
"                  XXXX++++XX    ",
"                  XXXX++++XX    ",
"                  OOXXXX..++    ",
"                  OOXXXX..++    ",
"                  XXOOXX++++    ",
"                  XXOOXX++++    ",
"                    XXOOXX      ",
"                    XXOOXX      ",
"      XXXX++@@++++++++XXXX      ",
"      XXXX++@@++++++++XXXX      ",
"    XXXXXXOO++++++++++++++      ",
"    XXXXXXOO++++++++++++++      ",
"    OOXX@@++@@++++++++++++      ",
"    OOXX@@++@@++++++++++++      ",
"    OOXX++++oo      ++++oo      ",
"    OOXX++++oo      ++++oo      ",
"    OOXX++++oo      ++++oo      ",
"    OOXX++++oo      ++++oo      ",
"        ++++oo      ++++oo      ",
"        ++++oo      ++++oo      ",
"        ++++oo      ++++oo      ",
"        ++++oo      ++++oo      ",
"                                ",
"                                "
};
